lite/images/sprite/horoscope-year-t/horoscope-year-t__home~after.svg

<?xml version="1.0" encoding="utf-8"?>
<!DOCTYPE svg PUBLIC "-//W3C//DTD SVG 1.1//EN" "http://www.w3.org/Graphics/SVG/1.1/DTD/svg11.dtd">
<svg version="1.1" baseProfile="full"
 xmlns="http://www.w3.org/2000/svg"
 xmlns:xlink="http://www.w3.org/1999/xlink"
 xmlns:ev="http://www.w3.org/2001/xml-events" 
  height="41px" 
  width="42px" 
>
<path fill="rgb( 100, 185, 235 )"
 d="M37.198,20.9090000000001 C37.198,20.9090000000001 21.002,5.048 21.002,5.048 C21.002,5.048 4.803,20.9090000000001 4.803,20.9090000000001 C4.803,20.9090000000001 0.37099999999998,20.9100000000001 0.37099999999998,20.9100000000001 C0.37099999999998,20.9100000000001 21.002,0.38100000000009 21.002,0.38100000000009 C21.002,0.38100000000009 29.085,8.15300000000002 29.085,8.15300000000002 C29.085,8.15300000000002 29.085,3.0809999999999 29.085,3.0809999999999 C29.085,3.0809999999999 33.944,3.0809999999999 33.944,3.0809999999999 C33.944,3.0809999999999 33.944,13.6880000000001 33.944,13.6880000000001 C33.944,13.6880000000001 41.629,20.9100000000001 41.629,20.9100000000001 C41.629,20.9100000000001 37.198,20.9090000000001 37.198,20.9090000000001 ZM35.912,22.2670000000001 C35.912,22.2670000000001 35.912,40.99 35.912,40.99 C35.912,40.99 5.98399999999998,40.99 5.98399999999998,40.99 C5.98399999999998,40.99 5.98399999999998,22.2670000000001 5.98399999999998,22.2670000000001 C5.98399999999998,22.2670000000001 21.002,8.17399999999998 21.002,8.17399999999998 C21.002,8.17399999999998 35.912,22.2670000000001 35.912,22.2670000000001 ZM14.885,32.915 C16.415,34.2270000000001 18.938,35.5999999999999 21.002,37.8430000000001 C23.065,35.5999999999999 25.587,34.2270000000001 27.116,32.915 C35.38,25.846 26.181,15.21 21.002,23.7529999999999 C15.82,15.21 6.62200000000001,25.846 14.885,32.915 Z "/></svg>

<?xml version="1.0" encoding="utf-8"?><svg baseProfile="full" xmlns="http://www.w3.org/2000/svg" height="41" width="42"><path fill="rgb( 100, 185, 235 )" d="M37.198 20.91S21.002 5.047 21.002 5.047s-16.2 15.86-16.2 15.86-4.43.002-4.43.002S21 .38 21 .38s8.083 7.773 8.083 7.773 0-5.072 0-5.072 4.86 0 4.86 0 0 10.61 0 10.61 7.684 7.22 7.684 7.22-4.432 0-4.432 0zm-1.286 1.357s0 18.723 0 18.723-29.928 0-29.928 0 0-18.723 0-18.723S21.002 8.174 21.002 8.174s14.91 14.093 14.91 14.093zM14.885 32.915c1.53 1.312 4.053 2.685 6.117 4.928 2.063-2.243 4.585-3.616 6.114-4.928 8.264-7.07-.935-17.705-6.114-9.162-5.182-8.543-14.38 2.093-6.117 9.162z"/></svg>
